assets/Goggles/Flat/goggles_flat.svg

<svg width="32" height="32" viewBox="0 0 32 32" fill="none" xmlns="http://www.w3.org/2000/svg">
<path d="M19.455 24.44C18.934 24.44 18.398 24.425 17.855 24.408C17.263 24.391 16.644 24.372 15.995 24.372C8.92103 24.372 5.06703 21.423 2.69503 14.194C1.87203 11.682 1.90603 9.82202 2.79503 8.50802C4.12003 6.55802 6.89503 6.38802 9.58003 6.22402C11.664 6.09602 13.818 5.96402 14.834 5.00502C18.224 1.80502 22.612 1.08302 26.018 3.15202C28.652 4.75202 30.918 8.40702 29.363 13.852C28.6285 16.6652 27.4104 19.3292 25.763 21.725C24.06 24.084 21.916 24.44 19.455 24.44ZM21.841 3.99402C19.7175 4.06887 17.7024 4.95038 16.206 6.45902C14.663 7.91602 12.14 8.07102 9.70003 8.22002C7.50003 8.35402 5.22003 8.49402 4.44703 9.63202C3.93403 10.388 3.98103 11.714 4.58903 13.571C6.66803 19.904 9.86403 22.371 15.989 22.371C16.658 22.371 17.298 22.39 17.908 22.408C21.056 22.501 22.762 22.462 24.139 20.557C25.6493 18.3497 26.7658 15.8974 27.439 13.309C28.48 9.65402 27.539 6.41802 24.979 4.86202C24.0333 4.28846 22.9471 3.98802 21.841 3.99402Z" fill="#5235A6"/>
<path d="M17 13.8921H22.49H24.99C27.76 13.8921 30 16.1321 30 18.9021V21.082V23.8721V23.972C30 27.292 27.31 29.982 23.99 29.982H21.44C19.95 29.982 18.58 29.142 17.91 27.802L17.45 26.882C17.17 26.342 16.61 25.992 16 25.992C15.38 25.992 14.82 26.332 14.55 26.882L14.09 27.802C13.42 29.132 12.06 29.982 10.56 29.982H8.01C4.69 29.982 2 27.292 2 23.972V23.8721V21.082V18.9021C2 16.1321 4.24 13.8921 7.01 13.8921H9.51H15H17Z" fill="#00A6ED"/>
<path d="M24.99 16.072H22.49H17H15H9.51H7.01C4.24 16.072 2 18.312 2 21.082V23.002C2 25.652 4.15 27.802 6.8 27.802H10.56C12.06 27.802 13.42 26.952 14.09 25.622L14.55 24.702C14.82 24.152 15.38 23.812 16 23.812C16.62 23.812 17.17 24.162 17.45 24.702L17.91 25.622C18.58 26.962 19.95 27.802 21.44 27.802H25.2C27.85 27.802 30 25.652 30 23.002V21.082C30 18.312 27.76 16.072 24.99 16.072Z" fill="#83CBFF"/>
<path d="M12.7071 19.6992C13.0976 19.3086 13.0976 18.6755 12.7071 18.285C12.3166 17.8944 11.6834 17.8944 11.2929 18.285L4.8029 24.775C4.41238 25.1655 4.41238 25.7986 4.8029 26.1892C5.19343 26.5797 5.82659 26.5797 6.21712 26.1892L12.7071 19.6992Z" fill="#AEDDFF"/>
<path d="M27.7071 19.6992C28.0976 19.3086 28.0976 18.6755 27.7071 18.285C27.3166 17.8944 26.6834 17.8944 26.2929 18.285L19.8029 24.775C19.4124 25.1655 19.4124 25.7986 19.8029 26.1892C20.1934 26.5797 20.8266 26.5797 21.2171 26.1892L27.7071 19.6992Z" fill="#AEDDFF"/>
</svg>

<svg xmlns="http://www.w3.org/2000/svg" width="32" height="32" fill="none"><path fill="#5235A6" d="M19.455 24.44c-.521 0-1.057-.015-1.6-.032-.592-.017-1.211-.036-1.86-.036-7.074 0-10.928-2.949-13.3-10.178-.823-2.512-.789-4.372.1-5.686 1.325-1.95 4.1-2.12 6.785-2.284 2.084-.128 4.238-.26 5.254-1.219 3.39-3.2 7.778-3.922 11.184-1.853 2.634 1.6 4.9 5.255 3.345 10.7a25.075 25.075 0 0 1-3.6 7.873c-1.703 2.359-3.847 2.715-6.308 2.715Zm2.386-20.446a8.351 8.351 0 0 0-5.635 2.465C14.663 7.916 12.14 8.071 9.7 8.22c-2.2.134-4.48.274-5.253 1.412-.513.756-.466 2.082.142 3.939 2.079 6.333 5.275 8.8 11.4 8.8.669 0 1.309.019 1.919.037 3.148.093 4.854.054 6.231-1.851a23.158 23.158 0 0 0 3.3-7.248c1.041-3.655.1-6.891-2.46-8.447a5.989 5.989 0 0 0-3.138-.868Z"/><path fill="#00A6ED" d="M17 13.892h7.99c2.77 0 5.01 2.24 5.01 5.01v5.07c0 3.32-2.69 6.01-6.01 6.01h-2.55c-1.49 0-2.86-.84-3.53-2.18l-.46-.92c-.28-.54-.84-.89-1.45-.89-.62 0-1.18.34-1.45.89l-.46.92a3.954 3.954 0 0 1-3.53 2.18H8.01c-3.32 0-6.01-2.69-6.01-6.01v-5.07c0-2.77 2.24-5.01 5.01-5.01H17Z"/><path fill="#83CBFF" d="M24.99 16.072H7.01c-2.77 0-5.01 2.24-5.01 5.01v1.92c0 2.65 2.15 4.8 4.8 4.8h3.76c1.5 0 2.86-.85 3.53-2.18l.46-.92c.27-.55.83-.89 1.45-.89s1.17.35 1.45.89l.46.92a3.947 3.947 0 0 0 3.53 2.18h3.76c2.65 0 4.8-2.15 4.8-4.8v-1.92c0-2.77-2.24-5.01-5.01-5.01Z"/><path fill="#AEDDFF" d="M12.707 19.7a1 1 0 0 0-1.414-1.415l-6.49 6.49a1 1 0 1 0 1.414 1.414l6.49-6.49ZM27.707 19.7a1 1 0 0 0-1.414-1.415l-6.49 6.49a1 1 0 0 0 1.414 1.414l6.49-6.49Z"/></svg>
